X:1
T:Title
%%score 1 ( 2 3 ) ( 4 5 )
L:1/8
Q:1/4=160
M:6/4
K:G
V:1 treble nm="Midi_20"
V:2 treble nm="Midi_20"
V:3 treble 
V:4 bass nm="Midi_20"
V:5 bass 
V:1
"^Children's voices (66. 66 44. 44)""^E. J. Hopkins\n(1818-1901)""^Above the clear blue sky""^John Chandler\n(1806-76)" B2 | %1
w: A-|
 c4 B2 A4 B2 | G6- G4 F2 | E4 F2 G4 A2 | D6- D4 || B2 | c4 B2 A4 B2 | G4 B2 A4 F2 | %8
w: bove the clear blue|sky, * In|hea- ven's bright a-|bode, *|The|an- gel host on|high Sing prai- ses|
 (G4 F2) (E4 F2) | D6- D4 z2 || (A6 d4) A2 | B6 G4 G2 | c4 d2 (B2 A2) G2 | d4 e2 c6 | %14
w: to * their *|God. *|Hal\- * le-|lu- jah! They|love to sing * To|God their King,|
 (B2 A2) G2 A6 | G6- G4 |] %16
w: Hal\- * le- lu-|jah. *|
V:2
 [DB]2 | [Ec]4 [DB]2 [CA]4 [DB]2 | [B,G]6- [CG]4 [DF]2 | E4 F2 G4 A2 | x6 x4 || [DB]2 | %6
 [Ec]4 [DB]2 [CA]4 [DB]2 | [B,G]4 [^CB]2 [DA]4 [DF]2 | G4 F2 E4 [^CF]2 | D6- D4 z2 || A6 d4 A2 | %11
 [B,B]6- [B,G]4 [B,G]2 | c4 d2 B2 A2 [DG]2 | [=Fd]4 [Ge]2 [Ec]6 | B2 A2 [^CG]2 [DA]6 | %15
 [B,G]6- [B,G]4 |] %16
V:3
 x2 | x12 | x12 | D6 C6- | [CD]6 [B,D]4 || x2 | x8 x2 x2 | x12 | B,6- B,4 x2 | x12 || F4 E2 D4 C2 | %11
 x8 x2 x2 | C6 D4 x2 | x12 | B,4 x8 | x8 x2 |] %16
V:4
 G,2 | G,4 D,2 F,4 D,2 | G,6- G,4 G,2 | G,6- G,4 F,2 | G,6- G,4 || D,2 | C,4 D,2 E,4 F,2 | %7
 G,4 G,2 A,4 B,2 | B,4 A,2 G,6 | F,6- F,4 z2 || %10
"^2. But God from children's tongues\nOn earth receiveth praise;\nWe then our cheerful songs\nIn sweet accord will raise.\nHallelujah! We too will sing\nTo God our King, Hallelujah!\n\n3. O blessed Lord, Thy truth\nIn love to us impart,\nAnd teach us in our youth\nTo know Thee as Thou art.\nHallelujah! Then shall we sing\nTo God our King, Hallelujah!" C6 A,4 F,2 | %11
 G,6- G,4 D,2 | E,4 [F,A,]2 G,2 A,2 B,2 | %13
"^4. O may Thy holy word\nSpread all the world around;\nAll then with one accord\nUplift the joyful sound.\nHallelujah! All then shall sing\nTo God their King, Hallelujah!" G,6- G,6 | %14
 G,6- G,4 F,2 | G,6- G,4 |] %16
V:5
 z2 | G,,12- | G,,4 G,,2 A,,4 B,,2 | C,4 D,2 E,4 D,2 | G,6 G,,4 || G,,2 | G,,12- | %7
 G,,4 E,2 F,4 B,,2 | E,6- E,4 A,,2 | D,6- D,4 z2 || D,4 E,2 F,4 D,2 | G,6 G,,4 G,,2 | %12
 G,,6 G,,4 D,2 | B,,4 G,,2 C,6 | E,6 D,6 | G,,6- G,,4 |] %16

